X: 413
%
U:~=!turn!
T: Miss MacPherson's Reel
C:Marshall
O:Scotland
B:Keith Norman MacDonald : "The Skye collection of the best reels & strathspeys extant" : 1887
Z:Ralph Palmer
R:Reel
M:C|
L:1/8
K:Bb
E | {/E}TD2 B,D FDBF | DB,FE ECCE | TD2 B,D FDBF | ecdA BB,B, :| e | Td>efd gefd | ecdB ec-ce |
Td>efd gefd | gabf dB-Be | Td>efd gefd | ecdB ec-cd | DB,FD GEBG | FD ec dBB |]


